img/work/logo-mozilla.svg

<?xml version="1.0" encoding="UTF-8" standalone="no"?>
<svg width="100px" height="26px" viewBox="0 0 100 26" version="1.1" xmlns="http://www.w3.org/2000/svg" xmlns:xlink="http://www.w3.org/1999/xlink">
    <!-- Generator: Sketch 41 (35326) - http://www.bohemiancoding.com/sketch -->
    <title>Mozilla_Foundation_201x_logo</title>
    <desc>Created with Sketch.</desc>
    <defs></defs>
    <g id="Content-real" stroke="none" stroke-width="1" fill="none" fill-rule="evenodd">
        <g id="Work-Copy" transform="translate(-900.000000, -9699.000000)" fill="#FFFFFF">
            <g id="Mozilla_Foundation_201x_logo" transform="translate(900.000000, 9699.000000)">
                <g id="svg3206">
                    <path d="M93.3321545,17.4900067 C90.1973028,17.4900067 89.0972867,18.0615289 89.0972867,20.1374152 C89.0972867,21.487646 89.95492,22.4027292 91.1051295,22.4027292 C91.9480483,22.4027292 92.7999975,21.9615503 93.4713575,21.2182476 L93.5453136,17.4900067 L93.3321545,17.4900067 Z M87.4557397,8.37469233 C89.14168,7.66098774 90.5910421,7.35886396 92.1878612,7.35886396 C95.1038697,7.35886396 97.097114,8.44003148 97.7800743,10.3735119 C98.0049407,11.084536 98.1084507,11.62646 98.0878201,13.4918091 L97.9781709,19.3171575 L97.9781709,19.6248658 C97.9781709,21.487646 98.2859167,22.2013506 99.6113524,23.1817729 L97.2036311,25.9653325 C96.144555,25.521138 95.2014725,24.7394137 94.7605559,23.8611884 C94.4264865,24.2032975 94.0508168,24.5350194 93.7077171,24.7748197 C92.8679304,25.3850985 91.6407577,25.7255323 90.2209495,25.7255323 C86.3618584,25.7255323 84.2651131,23.7560873 84.2651131,20.3061801 C84.2651131,16.2329261 87.0805162,14.3329529 92.5927546,14.3329529 C92.924147,14.3329529 93.2375768,14.3329529 93.6132465,14.371598 L93.6132465,13.6639247 C93.6132465,11.7286571 93.2375768,11.084536 91.5697017,11.084536 C90.132386,11.084536 88.4259222,11.7920976 86.5685436,13.0491782 L84.6374365,9.79484161 C85.5572025,9.21717648 86.2345903,8.88121038 87.4557397,8.37469233 L87.4557397,8.37469233 Z M80.3402129,4.51342763 L80.3402129,18.0319308 C80.3402129,21.018321 80.3789176,21.4197379 80.656989,21.8935306 C80.8164924,22.2013506 81.1831273,22.3674349 81.5619201,22.3674349 C81.7333584,22.3674349 81.8368683,22.3674349 82.0763466,22.3049997 L82.8484325,25.0130563 C82.0763466,25.316632 81.1269107,25.4858437 80.1421163,25.4858437 C78.2112323,25.4858437 76.6526717,24.5733294 76.1114754,23.1193378 C75.7654756,22.23698 75.7091474,21.6921519 75.7091474,19.219428 L75.7091474,6.26909625 C75.7091474,4.00076658 75.6413306,2.61479471 75.4666576,1.04978239 L80.0978346,0 C80.2843309,0.947808633 80.3402129,2.06706273 80.3402129,4.51342763 L80.3402129,4.51342763 Z M70.9358674,4.51342763 L70.9358674,18.0319308 C70.9358674,21.018321 70.9714489,21.4197379 71.2436086,21.8935306 C71.415047,22.2013506 71.7816818,22.3674349 72.1603631,22.3674349 C72.3229897,22.3674349 72.4204764,22.3674349 72.6659778,22.3049997 L73.4408523,25.0130563 C72.6659778,25.316632 71.716765,25.4858437 70.7350938,25.4858437 C68.800752,25.4858437 67.245203,24.5733294 66.7066837,23.1193378 C66.3667071,22.23698 66.2927555,21.6921519 66.2927555,19.219428 L66.2927555,6.26909625 C66.2927555,4.00076658 66.2338619,2.61479471 66.0648775,1.04978239 L70.7024123,0 C70.8649274,0.947808633 70.9358674,2.06706273 70.9358674,4.51342763 L70.9358674,4.51342763 Z M62.6790543,7.320554 L62.6790543,25.0799591 L58.145141,25.0799591 L58.145141,8.0341469 L62.6790543,7.320554 L62.6790543,7.320554 Z M63.2112158,2.95243618 C63.2112158,4.51342763 61.9719968,5.75989762 60.404736,5.75989762 C58.8874455,5.75989762 57.6396378,4.51342763 57.6396378,2.95243618 C57.6396378,1.39479545 58.9290502,0.13771483 60.481253,0.13771483 C62.0015551,0.13771483 63.2112158,1.39479545 63.2112158,2.95243618 L63.2112158,2.95243618 Z M55.5424463,7.72934254 L55.5424463,10.8473046 L47.8889578,21.9274846 L55.8412643,21.9274846 L54.7558601,25.0799591 L42.0038384,25.0799591 L42.0038384,22.2681417 L50.1514529,10.9158828 L42.6837915,10.9158828 L42.6837915,7.72934254 L55.5424463,7.72934254 L55.5424463,7.72934254 Z M30.8012309,12.5058021 C30.4905896,13.423901 30.3251745,14.64256 30.3251745,16.3719812 C30.3251745,18.3663332 30.5290712,19.8650012 30.8987176,20.7428913 C31.3068457,21.6921519 32.3273331,22.1659446 33.1994712,22.1659446 C35.1633713,22.1659446 36.0032741,20.4054732 36.0032741,16.3055252 C36.0032741,13.9657134 35.6985444,12.4377824 35.0924313,11.6561698 C34.6574219,11.084536 33.9508105,10.7441022 33.1345544,10.7441022 C32.0492617,10.7441022 31.1678658,11.4190501 30.8012309,12.5058021 L30.8012309,12.5058021 Z M38.954534,10.0006879 C40.3386447,11.62646 40.9568042,13.5230825 40.9568042,16.3351233 C40.9568042,19.3171575 40.2737279,21.3542871 38.7800841,23.0453984 C37.4671365,24.5350194 35.737026,25.4531183 33.0694146,25.4531183 C28.3583743,25.4531183 25.2856464,21.9274846 25.2856464,16.4741784 C25.2856464,11.0160695 28.3908327,7.38857373 33.0694146,7.38857373 C35.5388179,7.38857373 37.4671365,8.23865286 38.954534,10.0006879 L38.954534,10.0006879 Z M4.10180402,7.42721877 C4.40352207,7.8936398 4.53659033,8.30968825 4.70512859,9.18746671 C5.88511947,8.0341469 7.34017014,7.42721877 8.92828907,7.42721877 C10.3625931,7.42721877 11.539684,7.8936398 12.4505267,8.84558099 C12.6959166,9.08415267 12.9326064,9.39197268 13.1367262,9.69409645 C14.7217219,8.06843599 16.1413026,7.42721877 18.0429629,7.42721877 C19.3972922,7.42721877 20.6809046,7.83276828 21.4647023,8.50805122 C22.443585,9.35511469 22.7540032,10.3735119 22.7540032,12.7444855 L22.7540032,25.0799591 L18.3534927,25.0799591 L18.3534927,13.6282953 C18.3534927,11.552409 18.1081028,11.150992 16.9280004,11.150992 C16.082186,11.150992 14.8933833,11.7286571 13.9174007,12.609563 L13.9174007,25.0799591 L9.6231887,25.0799591 L9.6231887,13.7910289 C9.6231887,11.62646 9.3098704,11.1182666 8.05001625,11.1182666 C7.21301355,11.1182666 6.05365773,11.552409 5.07778664,12.4377824 L5.07778664,25.0799591 L0.647606301,25.0799591 L0.647606301,12.9795948 C0.647606301,10.4742571 0.47605644,9.39197268 0,8.54077664 L4.10180402,7.42721877 L4.10180402,7.42721877 Z" id="path3087"></path>
                </g>
            </g>
        </g>
    </g>
</svg>

<svg width="100" height="26" viewBox="0 0 100 26" xmlns="http://www.w3.org/2000/svg"><title>Mozilla_Foundation_201x_logo</title><path d="M93.332 17.49c-3.135 0-4.235.572-4.235 2.647 0 1.35.858 2.266 2.008 2.266.843 0 1.695-.441 2.366-1.185l.074-3.728h-.213zm-5.876-9.115c1.686-.714 3.135-1.016 4.732-1.016 2.916 0 4.91 1.081 5.592 3.015.225.71.328 1.252.308 3.118l-.11 5.825v.308c0 1.863.308 2.576 1.633 3.557l-2.407 2.783c-1.06-.444-2.003-1.226-2.443-2.104-.335.342-.71.674-1.053.914-.84.61-2.067.95-3.487.95-3.86 0-5.956-1.969-5.956-5.419 0-4.073 2.816-5.973 8.328-5.973.331 0 .645 0 1.02.039v-.708c0-1.935-.375-2.58-2.043-2.58-1.438 0-3.144.708-5.001 1.965l-1.932-3.254c.92-.578 1.598-.914 2.819-1.42zM80.34 4.513v13.519c0 2.986.039 3.388.317 3.862.16.307.526.473.905.473.171 0 .275 0 .514-.062l.772 2.708c-.772.304-1.721.473-2.706.473-1.93 0-3.49-.913-4.03-2.367-.347-.882-.403-1.427-.403-3.9V6.27c0-2.268-.068-3.654-.242-5.22L80.097 0c.187.948.243 2.067.243 4.513zm-9.404 0v13.519c0 2.986.035 3.388.308 3.862.171.307.538.473.916.473.163 0 .26 0 .506-.062l.775 2.708c-.775.304-1.724.473-2.706.473-1.934 0-3.49-.913-4.028-2.367-.34-.882-.414-1.427-.414-3.9V6.27c0-2.268-.06-3.654-.228-5.22L70.702 0c.163.948.234 2.067.234 4.513zm-8.257 2.808V25.08h-4.534V8.034l4.534-.713zm.532-4.369a2.79 2.79 0 0 1-2.806 2.808c-1.518 0-2.765-1.247-2.765-2.808 0-1.557 1.29-2.814 2.841-2.814 1.52 0 2.73 1.257 2.73 2.814zM55.542 7.73v3.118l-7.653 11.08h7.952l-1.085 3.153H42.004v-2.812l8.147-11.352h-7.467V7.729h12.858zm-24.74 4.777c-.311.918-.477 2.137-.477 3.866 0 1.994.204 3.493.574 4.37.408.95 1.428 1.424 2.3 1.424 1.964 0 2.804-1.76 2.804-5.86 0-2.34-.304-3.868-.91-4.65-.436-.571-1.142-.912-1.958-.912-1.086 0-1.967.675-2.334 1.762zM38.954 10c1.384 1.625 2.002 3.522 2.002 6.334 0 2.982-.683 5.02-2.177 6.71-1.313 1.49-3.043 2.408-5.71 2.408-4.712 0-7.784-3.526-7.784-8.979 0-5.458 3.105-9.085 7.783-9.085 2.47 0 4.398.85 5.886 2.612zM4.102 7.427c.302.467.435.883.603 1.76 1.18-1.153 2.635-1.76 4.223-1.76 1.435 0 2.612.467 3.523 1.419.245.238.482.546.686.848 1.585-1.626 3.004-2.267 4.906-2.267 1.354 0 2.638.406 3.422 1.081.979.847 1.289 1.866 1.289 4.236V25.08h-4.4V13.628c0-2.076-.246-2.477-1.426-2.477-.846 0-2.035.578-3.01 1.459v12.47H9.622V13.791c0-2.165-.313-2.673-1.573-2.673-.837 0-1.996.434-2.972 1.32V25.08H.648v-12.1c0-2.506-.172-3.588-.648-4.44l4.102-1.113z" fill="#FFF" fill-rule="evenodd"/></svg>
